src/img/postcss.svg

<svg width="38" height="38" viewBox="0 0 38 38" fill="none" xmlns="http://www.w3.org/2000/svg">
<path d="M11.3418 18.0466C11.2431 16.3208 11.5841 14.5616 11.4374 12.8611C10.235 14.199 9.33757 15.9773 7.79924 16.937L8.00917 16.4966L7.79975 16.6289C10.4778 11.9464 14.3152 7.6175 17.3327 3.03049C8.40627 3.02493 2.63186 11.6307 2.1265 19.6224L2.58178 18.8486C2.9293 19.7926 2.7305 20.8068 3.04211 21.7447C2.91818 21.7558 2.83572 21.7588 2.70521 21.778V22.2326L2.63692 22.2493C0.103053 15.9627 2.34048 10.1504 7.14314 5.59521C12.7759 0.584457 22.7237 0.454654 29.0829 4.16234C34.1653 7.23415 36.7821 13.1278 36.3739 18.9658C36.3505 20.4115 36.1676 21.8502 35.8286 23.2558C35.5655 24.2917 34.8674 25.0913 35.781 26.0261C36.2171 26.7908 34.705 26.1994 34.5492 26.7711C31.9385 32.6717 26.3206 36.1398 19.6921 36.4163C16.3969 35.9855 12.9135 35.6385 10.023 33.6723C8.30984 32.5175 5.52768 30.7642 5.01801 28.6914L5.84004 29.3616L5.86381 29.3414C5.58913 28.7419 5.08074 28.3924 5.09895 27.6747C5.1207 27.6514 5.14296 27.6287 5.16471 27.606C5.73684 28.5969 6.59579 29.3232 7.46891 30.0379C8.25603 30.9682 9.4008 31.6319 10.5066 32.2031C12.9243 33.6651 15.6574 34.5282 18.4775 34.7203C21.973 34.7774 25.4108 33.789 28.2452 31.7228C29.5923 30.7283 31.1443 29.7187 31.7827 28.11C32.0462 27.4807 32.6335 27.0438 32.8131 26.3423C24.8488 26.4297 16.9053 27.2408 8.93642 27.105C8.42094 27.1747 1.90493 27.1741 3.30971 26.3014C5.78844 25.7403 8.35619 26.1181 10.8759 25.9696C11.6853 25.9438 10.9386 24.4241 11.3909 23.9645L11.5426 24.1372C11.6595 23.8069 11.4799 23.4351 11.3752 23.1185C11.2882 22.3659 11.4344 21.6341 11.5037 20.8911C11.2419 20.9823 11.4028 18.3301 11.3418 18.0466ZM19.5615 3.07241C21.5789 5.79977 23.6024 8.51803 25.6319 11.2272C25.9405 11.7075 27.0483 11.1403 27.0933 11.6818C26.719 13.7631 28.4667 15.2197 29.4284 16.8865C31.0325 18.9759 32.286 21.4512 33.9811 23.4018C34.7157 21.5912 35.4114 16.7973 34.3393 15.0697C34.058 13.1874 33.7237 11.1474 32.4555 9.65493C31.2247 8.29125 30.2297 6.6609 28.6671 5.64168C25.856 4.08557 22.7884 3.14867 19.5615 3.07241ZM16.064 15.2581C15.145 15.7579 13.2596 17.6103 13.4765 18.7926C13.4983 19.0572 13.342 19.8694 12.8756 19.6512C13.4189 27.105 11.446 25.9776 16.6594 25.966C16.1723 25.9587 12.0522 22.4658 13.2428 21.9073C13.2049 21.7331 13.1715 21.5826 13.1386 21.4326C13.8215 22.1639 14.1448 23.0771 14.8687 23.7862C16.9331 25.6206 20.6775 25.5286 22.5846 23.5266C23.1532 22.8462 23.6469 22.0164 23.8351 21.1457C23.6833 20.9861 23.8239 20.8679 23.875 20.7371C24.218 19.8012 24.3809 18.7284 24.2175 17.738C23.6519 15.4394 20.9678 13.6061 18.6166 14.0424C18.3756 14.1204 16.5941 14.8385 16.064 15.2581ZM18.3065 3.64162C17.5523 4.55377 16.8901 5.53006 16.2325 6.51342C16.1505 6.65888 16.2375 6.92354 15.929 6.8897C15.9097 6.8897 15.8642 6.96849 15.8586 7.01445C14.7857 8.71955 13.3627 10.262 12.2002 11.9808C16.146 11.9954 20.0325 11.4858 23.9727 11.5797C22.1197 8.87107 20.4362 6.11998 18.3065 3.64162ZM27.4024 23.3543C27.2274 23.6993 26.889 23.9321 27.1667 24.3367C27.0589 25.0544 26.6396 25.6251 27.7884 25.563C29.7375 25.3701 31.7002 25.6029 33.6336 25.361C31.1691 22.5346 29.3535 19.2709 27.1475 16.2541C27.025 17.4077 27.1829 18.4653 27.1217 19.5977C27.0478 19.9073 27.3134 22.8467 27.4024 23.3543ZM21.5632 13.1182L21.5248 13.2035C23.5882 13.8414 24.7947 15.3102 25.5449 17.3137C25.3461 12.7318 26.4099 12.9975 21.5632 13.1182ZM21.973 25.7145C26.7306 25.4721 25.5945 26.5837 25.3289 21.9265C23.786 24.7271 24.0804 24.0392 21.974 25.7145H21.973ZM16.1622 13.3944C12.2478 13.6338 13.0648 12.6969 12.9342 16.6127C13.8792 15.3738 14.8419 14.2334 16.1622 13.3944Z" fill="#272727"/>
<path d="M6.73844 17.7885C6.98833 18.2976 6.65042 18.6158 6.39091 18.7946C6.17187 18.9542 5.26486 20.3214 5.35996 19.4052C5.77629 18.8269 6.2088 18.2759 6.73844 17.7885Z" fill="#272727"/>
</svg>

<svg width="38" height="38" viewBox="0 0 38 38" fill="none" xmlns="http://www.w3.org/2000/svg"><path d="M11.342 18.047c-.099-1.726.242-3.485.095-5.186-1.202 1.338-2.1 3.116-3.638 4.076l.21-.44-.21.132c2.679-4.683 6.516-9.012 9.534-13.599-8.927-.005-14.701 8.6-15.206 16.592l.455-.773c.347.944.149 1.958.46 2.896-.124.01-.206.014-.337.033v.455l-.068.016C.103 15.963 2.34 10.15 7.143 5.595c5.633-5.01 15.58-5.14 21.94-1.433 5.082 3.072 7.7 8.966 7.29 14.804a19.654 19.654 0 01-.544 4.29c-.264 1.036-.962 1.835-.048 2.77.436.765-1.076.173-1.232.745-2.61 5.9-8.228 9.369-14.857 9.645-3.295-.43-6.778-.777-9.669-2.744-1.713-1.154-4.495-2.908-5.005-4.98l.822.67.024-.02c-.275-.6-.783-.95-.765-1.667l.066-.069c.572.99 1.43 1.717 2.304 2.432.787.93 1.932 1.594 3.038 2.165a17.733 17.733 0 007.97 2.517c3.496.057 6.934-.931 9.768-2.997 1.347-.995 2.9-2.004 3.538-3.613.263-.63.85-1.066 1.03-1.768-7.964.088-15.908.899-23.877.763-.515.07-7.031.07-5.626-.804 2.478-.56 5.046-.183 7.566-.331.81-.026.063-1.546.515-2.005l.152.172c.117-.33-.063-.702-.168-1.018-.087-.753.06-1.485.129-2.228-.262.091-.101-2.56-.162-2.844zm8.22-14.975a1674.97 1674.97 0 006.07 8.155c.308.48 1.416-.087 1.461.455-.374 2.081 1.374 3.538 2.335 5.205 1.604 2.089 2.858 4.564 4.553 6.515.735-1.81 1.43-6.605.358-8.332-.281-1.883-.615-3.923-1.883-5.415-1.231-1.364-2.226-2.994-3.789-4.013-2.811-1.556-5.879-2.493-9.106-2.57zm-3.498 12.186c-.919.5-2.804 2.352-2.588 3.535.022.264-.134 1.076-.6.858.543 7.454-1.43 6.327 3.783 6.315-.487-.007-4.607-3.5-3.416-4.059l-.104-.474c.683.73 1.006 1.644 1.73 2.353 2.064 1.835 5.808 1.743 7.716-.26.568-.68 1.062-1.51 1.25-2.38-.152-.16-.011-.278.04-.409.343-.936.506-2.009.343-2.999-.566-2.299-3.25-4.132-5.601-3.696-.241.078-2.023.796-2.553 1.216zm2.242-11.616c-.754.912-1.416 1.888-2.073 2.871-.082.146.005.41-.304.377-.02 0-.065.078-.07.124-1.073 1.706-2.496 3.248-3.659 4.967 3.946.014 7.832-.495 11.773-.401-1.853-2.709-3.537-5.46-5.666-7.938zm9.096 19.712c-.175.345-.513.578-.235.983-.108.717-.527 1.288.621 1.226 1.95-.193 3.912.04 5.846-.202-2.465-2.826-4.28-6.09-6.486-9.107-.123 1.154.035 2.211-.026 3.344-.074.31.191 3.249.28 3.756zm-5.839-10.236l-.038.085c2.063.638 3.27 2.107 4.02 4.11-.199-4.581.865-4.315-3.982-4.195zm.41 12.597c4.758-.243 3.622.869 3.356-3.788-1.543 2.8-1.249 2.112-3.355 3.788h-.001zm-5.81-12.32c-3.915.239-3.098-.698-3.229 3.218.945-1.24 1.908-2.38 3.228-3.219z" fill="#272727"/><path d="M6.738 17.788c.25.51-.088.828-.347 1.007-.22.16-1.126 1.526-1.031.61.416-.578.849-1.13 1.378-1.617z" fill="#272727"/></svg>
